svgs/sharp-thin/monument.svg

<svg xmlns="http://www.w3.org/2000/svg" viewBox="0 0 384 512"><!--! Font Awesome Pro 6.6.0 by @fontawesome - https://fontawesome.com License - https://fontawesome.com/license (Commercial License) Copyright 2024 Fonticons, Inc. --><path d="M74.1 400l37.1-296.6L192 22.6l80.8 80.8L309.9 400l16.1 0L288 96 203.3 11.3 192 0 180.7 11.3 96 96 58 400l16.1 0zM144 272l96 0 0 32-96 0 0-32zm0-16l-16 0 0 16 0 32 0 16 16 0 96 0 16 0 0-16 0-32 0-16-16 0-96 0zM16 496l0-48 352 0 0 48L16 496zM0 432l0 16 0 48 0 16 16 0 352 0 16 0 0-16 0-48 0-16-16 0L16 432 0 432z"/></svg>

<svg xmlns="http://www.w3.org/2000/svg" viewBox="0 0 384 512"><!--! Font Awesome Pro 6.5.2 by @fontawesome - https://fontawesome.com License - https://fontawesome.com/license (Commercial License) Copyright 2024 Fonticons, Inc. --><path d="M74.1 400l37.1-296.6L192 22.6l80.8 80.8L309.9 400H326L288 96 203.3 11.3 192 0 180.7 11.3 96 96 58 400H74.1zM144 272h96v32H144V272zm0-16H128v16 32 16h16 96 16V304 272 256H240 144zM16 496V448H368v48H16zM0 432v16 48 16H16 368h16V496 448 432H368 16 0z"/></svg>
